!!!OTL: "Beim Ritt auf dem Knie" ULL MANN WULL RIDEN
!!!ARE: Europa, Mitteleuropa, Deutschland, Nord - Deutschland
!!!SCT: Z1375
!!!YEM: Copyright 1995, estate of Helmut Schaffrath.
**kern
*ICvox
*Ivox
*M3/4
*k[]
*C:
{4c
4c
4d
=1
4B
8B
8A
8B
8G}
=2
{4c
4c
4d
=3
2e-
4r}
=4
{4e-
4e-
4e-
=5
4.d
8d
4d}
=6
{4c
4c
4c
=7
4.B
8B
4B}
=8
{4c
4c
4e-
=9
2d
4B
=10
2c
4r}
==
!!!AGN: Kinder - Lied
!!!ONB: ESAC (Essen Associative Code) Database: ZUCCAL
!!!AMT: simple triple
!!!AIN: vox
!!!EED: Helmut Schaffrath
!!!EEV: 1.0
*-
